app/dist/common/images/air-products-and-chemicals.svg

<svg height="18" width="18" xmlns="http://www.w3.org/2000/svg"><path d="m0 0h18v18h-18z" fill="#009539"/><path d="m5.253 11h-1.253l1.737-3.275h1.38l1.478-2.725h1.195l-1.634 3.025h-1.164l-.55.975h1.253l-1.503 3h7.174l-.714 1h-8.457zm2.747 0 1-2h2l1 2zm4-2h2l-1 2zm-2.689-1 .689-1.313.72 1.313h-1.41z" fill="#fff"/></svg>

<!-- by TradingView --><svg width="18" height="18" xmlns="http://www.w3.org/2000/svg"><path fill="#009539" d="M0 0h18v18H0z"/><path d="M5.253 11H4l1.737-3.275h1.38L8.595 5H9.79L8.156 8.025H6.992L6.442 9h1.253l-1.503 3h7.174l-.714 1H4.195l1.058-2zM8 11l1-2h2l1 2H8zm4-2h2l-1 2-1-2zM9.311 8L10 6.687 10.72 8H9.31z" fill="#fff"/></svg>
